assets/icon-pause.svg

<svg
  class="icon icon-pause"
  viewBox="0 0 8 12"
  fill="none"
  xmlns="http://www.w3.org/2000/svg"
  focusable="false"
  aria-hidden="true"
>
  <path d="M1.2 0.75C0.813401 0.75 0.5 0.985051 0.5 1.275V10.725C0.5 11.0149 0.813401 11.25 1.2 11.25C1.5866 11.25 1.9 11.0149 1.9 10.725V1.275C1.9 0.985051 1.5866 0.75 1.2 0.75Z" fill="currentColor"/>
  <path d="M6.8 0.75C6.4134 0.75 6.1 0.985051 6.1 1.275V10.725C6.1 11.0149 6.4134 11.25 6.8 11.25C7.1866 11.25 7.5 11.0149 7.5 10.725V1.275C7.5 0.985051 7.1866 0.75 6.8 0.75Z" fill="currentColor"/>
</svg>

<svg xmlns="http://www.w3.org/2000/svg" fill="none" class="icon icon-pause" viewBox="0 0 8 12"><path fill="currentColor" d="M1.2.75c-.387 0-.7.235-.7.525v9.45c0 .29.313.525.7.525s.7-.235.7-.525v-9.45c0-.29-.313-.525-.7-.525m5.6 0c-.387 0-.7.235-.7.525v9.45c0 .29.313.525.7.525s.7-.235.7-.525v-9.45c0-.29-.313-.525-.7-.525"/></svg>
